X:1
T:On for Jesus!
T:On for Jesus!
T:J. Howard Entwisle
T:J. Howard Entwisle, 1897
T:Public Domain Courtesy of the Cyber Hymnal™
T:Public Domain Courtesy of the Cyber Hymnal™
C:J. Howard Entwisle
Z:Public Domain
Z:Courtesy of the Cyber Hymnal™
%%score ( 1 2 ) ( 3 4 )
L:1/8
Q:1/4=102
M:4/4
K:G
V:1 treble 
V:2 treble 
V:3 bass 
V:4 bass 
V:1
 [Gd]2 [GB]2 [Ge]2 [Gd]2 | [GB]>[GA] G>[GB] [EA]>[EG] [CE]2 | [B,D]2 [B,G]2 [CE]2 [Ec]2 | %3
w: 1.~On for Je- sus!|stea- dy be your arm and brave;|On- ward, on- ward|
w: 2.~On for Je- sus!|tire- some tho’ the con- flict be,|Tho’ the hosts of|
w: 3.~On for Je- sus,|till the sound of strife is o’er!|When the great Com-|
 [DB]>[DB] [GA]>G [FA]4 | [Gd]2 [GB]2 [Ge]2 [Gd]2 | [GB]>[GA] G>[GB] [EA]>[EG] [CE]2 | %6
w: take the shield and sword;|On for Je- sus!|stand- ard of your cap- tain wave,|
w: sin are press- ing hard;|On for Je- sus!|striv- ing for the vic- to- ry,|
w: mand- er calls for thee,|Thou shalt wear a|crown of life for- ev- er- more,|
 [B,D]2 [B,G]2 [CE]2 [Ec]2 | [DB]>[DG] [CA]>[CF] !fermata![B,G]4 || %8
w: Press- ing on- ward,|trust- ing in His word.|
w: End- less life will|soon be your re- ward.|
w: And with Je- sus|reign e- ter- nal- ly.|
"^Refrain" [FA]4- [FA]>[^E^G] [FA]>[=GB] | [Ac]4- [Ac]>[^GB] [Ac]>[Bd] | [ce]2 [Bd]2 [Ac]2 [GB]2 | %11
w: |||
w: March- * ing, march- ing|on, * We’re march- ing|on- ward still for|
w: |||
 [GB]4 [FA]4 | [FA]4- [FA]>[^E^G] [FA]>[=GB] | [Ac]4- [Ac]>[ce] [Bd]>[Ac] | %14
w: |||
w: Je- sus;|March- * ing, march- ing|on, * Be- neath the|
w: |||
 [GB]2 [GB]2 [G^c]3 [Gc] | [Fd]6 z2 | [Gd]2 [GB]2 [Ge]2 [Gd]2 | [GB]>[GA] G>[GB] [EA]>[EG] [CE]2 | %18
w: ||||
w: ban- ner of the|free.|“On for Je- sus!”|this shall be the bat- tle cry,|
w: ||||
 [B,D]2 [B,G]2 [CE]2 [Ec]2 | [DB]>[DB] [GA]>G [FA]4 | [Gd]2 [GB]2 [Ge]2 [Gd]2 | %21
w: |||
w: Ne’er re- treat- ing,|ev- er press- ing on;|On for Je- sus!|
w: |||
 [GB]>[GA] G>[GB] [EA]>[EG] [CE]2 | [B,D]2 [B,G]2 [CE]2 [Ec]2 | %23
w: ||
w: march- ing on to vic- to- ry,|As we shout the|
w: ||
 [DB]>[DG] [CA]>[CF] !fermata![B,G]4 |] %24
w: |
w: glad re- demp- tion song.|
w: |
V:2
 x8 | x2 G3/2 x9/2 | x8 | x7/2 G/ x4 | x8 | x2 G3/2 x9/2 | x8 | x8 || x8 | x8 | x8 | x8 | x8 | x8 | %14
 x8 | x8 | x8 | x2 G3/2 x9/2 | x8 | x7/2 G/ x4 | x8 | x2 G3/2 x9/2 | x8 | x8 |] %24
V:3
 [G,B,]2 [G,D]2 [G,C]2 [G,B,]2 | [G,D]>[G,C] [G,B,]>[G,D] [C,C]>[C,C] [C,G,]2 | %2
w: ~ ~ ~ ~|~ ~ ~ ~ ~ ~ ~|
 [G,,G,]2 [G,,G,]2 [C,G,]2 [C,G,]2 | G,>G, [E,^C]>[E,C] (D2 =C2) | [G,B,]2 [G,D]2 [G,C]2 [G,B,]2 | %5
w: ~ ~ ~ ~|~ ~ ~ ~ ~ *|~ ~ ~ ~|
 [G,D]>[G,C] [G,B,]>[G,D] [C,C]>[C,C] [C,G,]2 | [G,,G,]2 [G,,G,]2 [C,G,]2 [C,G,]2 | %7
w: ~ ~ ~ ~ ~ ~ ~|~ ~ ~ ~|
 [D,G,]>[D,B,] [D,F,]>[D,A,] !fermata![G,,G,]4 || [D,D]2 [D,D]2 [D,D]2 z2 | %9
w: ~ ~ ~ ~ ~|March- ing on,|
 [D,D]2 [D,D]2 [D,D]2 z2 | [D,D]2 [D,D]2 [F,D]2 [G,D]2 | [D,D]4 [D,D]4 | [D,D]2 [D,D]2 [D,D]2 z2 | %13
w: march- ing on,|~ ~ ~ ~|~ ~|March- ing on,|
 [D,D]2 [D,D]2 [D,D]2 z2 | [G,D]2 [G,D]2 [E,A,]3 [A,,A,] | (A,4 C2) z2 | %16
w: march- ing on,|||
 [G,B,]2 [G,D]2 [G,C]2 [G,B,]2 | [G,D]>[G,C] [G,B,]>[G,D] [C,C]>[C,C] [C,G,]2 | %18
w: ||
 [G,,G,]2 [G,,G,]2 [C,G,]2 [C,G,]2 | G,>G, [E,^C]>[E,C] (D2 =C2) | [G,B,]2 [G,D]2 [G,C]2 [G,B,]2 | %21
w: |||
 [G,D]>[G,C] [G,B,]>[G,D] [C,C]>[C,C] [C,G,]2 | [G,,G,]2 [G,,G,]2 [C,G,]2 [C,G,]2 | %23
w: ||
 [D,G,]>[D,B,] [D,F,]>[D,A,] !fermata![G,,G,]4 |] %24
w: |
V:4
 x8 | x8 | x8 | G,>G, x3/2 D,4 x/ | x8 | x8 | x8 | x8 || x8 | x8 | x8 | x8 | x8 | x8 | x8 | %15
 D,6 x2 | x8 | x8 | x8 | G,>G, x3/2 D,4 x/ | x8 | x8 | x8 | x8 |] %24

